src/assets/duotone/Book.svg

<svg width="24" height="24" viewBox="0 0 24 24"  xmlns="http://www.w3.org/2000/svg">
<path opacity="0.4" d="M12 5.30019V21.3302C11.83 21.3302 11.65 21.3002 11.51 21.2202L11.47 21.2002C9.55 20.1502 6.2 19.0502 4.03 18.7602L3.74 18.7202C2.78 18.6002 2 17.7002 2 16.7402V4.66019C2 3.47019 2.97 2.57019 4.16 2.67019C6.26 2.84019 9.44 3.90019 11.22 5.01019L11.47 5.16019C11.62 5.25019 11.81 5.30019 12 5.30019Z" />
<path d="M22 4.67003V16.74C22 17.7 21.22 18.6 20.26 18.72L19.93 18.76C17.75 19.05 14.39 20.16 12.47 21.22C12.34 21.3 12.18 21.33 12 21.33V5.30003C12.19 5.30003 12.38 5.25003 12.53 5.16003L12.7 5.05003C14.48 3.93003 17.67 2.86003 19.77 2.68003H19.83C21.02 2.58003 22 3.47003 22 4.67003Z" />
<path d="M7.75 9.24023H5.5C5.09 9.24023 4.75 8.90023 4.75 8.49023C4.75 8.08023 5.09 7.74023 5.5 7.74023H7.75C8.16 7.74023 8.5 8.08023 8.5 8.49023C8.5 8.90023 8.16 9.24023 7.75 9.24023Z" />
<path d="M8.5 12.2402H5.5C5.09 12.2402 4.75 11.9002 4.75 11.4902C4.75 11.0802 5.09 10.7402 5.5 10.7402H8.5C8.91 10.7402 9.25 11.0802 9.25 11.4902C9.25 11.9002 8.91 12.2402 8.5 12.2402Z" />
</svg>

<?xml version="1.0" encoding="UTF-8"?>
<svg width="24" height="24" viewBox="0 0 24 24" xmlns="http://www.w3.org/2000/svg">
 <path d="m12 5.3002v16.03c-0.17 0-0.35-0.03-0.49-0.11l-0.04-0.02c-1.92-1.05-5.27-2.15-7.44-2.44l-0.29-0.04c-0.96-0.12-1.74-1.02-1.74-1.98v-12.08c0-1.19 0.97-2.09 2.16-1.99 2.1 0.17 5.28 1.23 7.06 2.34l0.25 0.15c0.15 0.09 0.34 0.14 0.53 0.14z" opacity=".4"/>
 <path d="m22 4.67v12.07c0 0.96-0.78 1.86-1.74 1.98l-0.33 0.04c-2.18 0.29-5.54 1.4-7.46 2.46-0.13 0.08-0.29 0.11-0.47 0.11v-16.03c0.19 0 0.38-0.05 0.53-0.14l0.17-0.11c1.78-1.12 4.97-2.19 7.07-2.37h0.06c1.19-0.1 2.17 0.79 2.17 1.99z"/>
 <path d="m7.75 9.2402h-2.25c-0.41 0-0.75-0.34-0.75-0.75s0.34-0.75 0.75-0.75h2.25c0.41 0 0.75 0.34 0.75 0.75s-0.34 0.75-0.75 0.75z"/>
 <path d="m8.5 12.24h-3c-0.41 0-0.75-0.34-0.75-0.75s0.34-0.75 0.75-0.75h3c0.41 0 0.75 0.34 0.75 0.75s-0.34 0.75-0.75 0.75z"/>
</svg>
